X:74
T:Miss Nancy Fancy(?). JJo.074
S:J.Jones MS,1801,N.Shrops.
A:N Shropshire
Z:Neil Brookes 2006
M:2/4
L:1/8
Q:1/4=140
K:F
faa2|bgg2|afef|g/f/g/a/ ge|faa2|bgg2|af c/e/4f/4g/a/|f2f2::!
(3c/d/e/|fedc|BAGF|dcfA|A2G (3c/d/e/|fedc|BAGF|ffga|f2f2::!
af a/f/a/f/|bg b/g/b/g/|af a/f/a/f/|e/f/g/e/ c/e/g/b/|!
af a/f/a/f/|bg b/g/b/g/|a/c'/a/f/ g/f/g/a/|f2f2:|

